X: 101
T:Soldier's Joy
N: page 34
N: heptatonic
M:4/4
L:1/8
R:hornpipe
N:http://home1.swipnet.se/~w-11382/hnhp0.abc
N:<cfalt@trytel.com> www.trytel.com/~cfalt/Fiddle/The_List.abc
K:D
dB|"D"AFDF AFDF|A2d2 "G"d2cB|"D"AFDF AFDF|\
"A7"G2E2 E2A2| "D"AFDF AFDF|A2d2 d2de|
"D"fafd "A7"egec|"D"d2 d2 d2:: de|\
"D"f2fe "Bm"fagf|"Em"edcd "A7"efge|"D"f2fe "Bm"fagf|
"E7"edcB A2de| "D"f2fd "Bm"fagf|"Em"edcd "A7"egfe|"D"fafd "A7"egec|"D"d2 d2 d2:|
